X: 10321
T: Masaniello Quadrilles Part 3.
C: Arranged by W. B. LAYBOURN
R: reel
B: K\"ohler's Violin Repository, v.1, 1885 p.32 #2
F: http://www.archive.org/details/klersviolinrepos01edin
Z: 2011 John Chambers <jc:trillian.mit.edu>
N: This tune would probably be better written an octave lower.
M: 2/4
L: 1/16
K: F
(ufg) |\
a2fg a2fg | a2ef c2fg | a2fg a2fg | a2ef d'2bc' |\
d'2bc' d'2bc' | d'2bc' d'2^c'd' | (e'd')=c'b (c'b)ag | f2a2f2z2 ||
vc4 f2c2 | a2f2 c'4 | (b3c'/b/) a2g2 | f2d2c2z2 |\
vc4 f2c2 | a2f2 (.c'3.c') | c'2(g>a g2)(de | d4c2)z2 |
va4 b2d2 | (d3e/^f/ g2)z2 | a4 c'2d2 | (d3e/^f/ g2)z2 |\
v(c3d/e/) (.f2.^f2) | g2c'2=b2_b2 | (a2_a2)f2d2 | c8 |
vc4 f2c2 | a2f2 c'4 | (b3c'/b/) a2g2 | f2d2c2z2 |\
vc4 f2c2 | a2f2 f4 | c'2(ac' b2)(de | f2)a2f2 "_D.C."|]

%%sep 2 1 500

